X: 1
T:The Birth of Seven Cheeps
C:Joey and David Kimdon
M:2/2
L:1/4
K:Dmaj clef=bass
"D"D,4|D,2F,3/2F,/2+breath+|"A"A,4|A,4+breath+|" F#m"F,4|"Bm"B,,3A,,+breath+|
"G"G,,4|"Bm"B,,3D,+breath+|" D/F#"F,4|"Gmaj7"G,4|"Asus4"A,3D,|"A"C,2
A,,2+breath+|
"G"G,,4|"Bm"B,,4|"G"G,4|"D/F#"F,4|"A/E"E,4+breath+|"G/D"D,2"G/B"B,,2
|"G"G,,4|"Gm"B,,4|"A7"A,,4|"D"D,4|]
